flaticon/education/school-2.svg

<svg xmlns="http://www.w3.org/2000/svg" width="32" height="32" viewBox="0 0 24 24">
    <path d="M7.601562 15.601562L7.199219 15.601562 7.199219 11.199219C7.199219 10.960938 7.039062 10.800781 6.800781 10.800781L3.601562 10.800781C3.359375 10.800781 3.199219 10.960938 3.199219 11.199219L3.199219 15.601562 2.800781 15.601562C2.558594 15.601562 2.398438 15.761719 2.398438 16 2.398438 16.238281 2.558594 16.398438 2.800781 16.398438L7.601562 16.398438C7.839844 16.398438 8 16.238281 8 16 8 15.761719 7.839844 15.601562 7.601562 15.601562zM4 11.601562L4.800781 11.601562 4.800781 15.601562 4 15.601562zM5.601562 15.601562L5.601562 11.601562 6.398438 11.601562 6.398438 15.601562zM10.398438 16.398438L14.398438 16.398438C14.640625 16.398438 14.800781 16.238281 14.800781 16 14.800781 15.761719 14.640625 15.601562 14.398438 15.601562L14 15.601562 14 11.199219C14 10.960938 13.839844 10.800781 13.601562 10.800781L10.398438 10.800781C10.160156 10.800781 10 10.960938 10 11.199219L10 15.601562 9.601562 15.601562C9.359375 15.601562 9.199219 15.761719 9.199219 16 9.199219 16.238281 9.359375 16.398438 9.601562 16.398438zM13.199219 15.601562L12.398438 15.601562 12.398438 11.601562 13.199219 11.601562zM10.800781 11.601562L11.601562 11.601562 11.601562 15.601562 10.800781 15.601562zM16.398438 16.398438L21.199219 16.398438C21.441406 16.398438 21.601562 16.238281 21.601562 16 21.601562 15.761719 21.441406 15.601562 21.199219 15.601562L20.800781 15.601562 20.800781 11.199219C20.800781 10.960938 20.640625 10.800781 20.398438 10.800781L17.199219 10.800781C16.960938 10.800781 16.800781 10.960938 16.800781 11.199219L16.800781 15.601562 16.398438 15.601562C16.160156 15.601562 16 15.761719 16 16 16 16.238281 16.160156 16.398438 16.398438 16.398438zM20 15.601562L19.199219 15.601562 19.199219 11.601562 20 11.601562zM17.601562 11.601562L18.398438 11.601562 18.398438 15.601562 17.601562 15.601562zM6.800781 17.199219L3.601562 17.199219C3.359375 17.199219 3.199219 17.359375 3.199219 17.601562L3.199219 20C3.199219 20.238281 3.359375 20.398438 3.601562 20.398438L6.800781 20.398438C7.039062 20.398438 7.199219 20.238281 7.199219 20L7.199219 17.601562C7.199219 17.359375 7.039062 17.199219 6.800781 17.199219zM6.398438 19.601562L4 19.601562 4 18 6.398438 18zM20.398438 17.199219L17.199219 17.199219C16.960938 17.199219 16.800781 17.359375 16.800781 17.601562L16.800781 20C16.800781 20.238281 16.960938 20.398438 17.199219 20.398438L20.398438 20.398438C20.640625 20.398438 20.800781 20.238281 20.800781 20L20.800781 17.601562C20.800781 17.359375 20.640625 17.199219 20.398438 17.199219zM20 19.601562L17.601562 19.601562 17.601562 18 20 18zM20 19.601562"/>
    <path d="M 23.601562 21.199219 L 23.199219 21.199219 L 23.199219 9.601562 C 23.199219 9.359375 23.039062 9.199219 22.800781 9.199219 L 22 9.199219 L 22 8 C 22 7.761719 21.839844 7.601562 21.601562 7.601562 L 19.601562 7.601562 L 19.601562 5.199219 L 22.398438 5.199219 C 22.640625 5.199219 22.800781 5.039062 22.800781 4.800781 L 22.800781 3.199219 C 22.800781 2.960938 22.640625 2.800781 22.398438 2.800781 L 19.601562 2.800781 L 19.601562 2.398438 C 19.601562 2.160156 19.441406 2 19.199219 2 C 18.960938 2 18.800781 2.160156 18.800781 2.398438 L 18.800781 7.601562 L 16.800781 7.601562 C 16.558594 7.601562 16.398438 7.761719 16.398438 8 L 16.398438 9.199219 L 15.601562 9.199219 L 15.601562 8 C 15.601562 7.921875 15.558594 7.839844 15.519531 7.761719 L 12.398438 3.859375 L 12.398438 3.199219 C 12.398438 2.960938 12.238281 2.800781 12 2.800781 C 11.761719 2.800781 11.601562 2.960938 11.601562 3.199219 L 11.601562 3.859375 L 8.480469 7.761719 C 8.441406 7.839844 8.398438 7.921875 8.398438 8 L 8.398438 9.199219 L 7.601562 9.199219 L 7.601562 8 C 7.601562 7.761719 7.441406 7.601562 7.199219 7.601562 L 5.199219 7.601562 L 5.199219 5.199219 L 8 5.199219 C 8.238281 5.199219 8.398438 5.039062 8.398438 4.800781 L 8.398438 3.199219 C 8.398438 2.960938 8.238281 2.800781 8 2.800781 L 5.199219 2.800781 L 5.199219 2.398438 C 5.199219 2.160156 5.039062 2 4.800781 2 C 4.558594 2 4.398438 2.160156 4.398438 2.398438 L 4.398438 7.601562 L 2.398438 7.601562 C 2.160156 7.601562 2 7.761719 2 8 L 2 9.199219 L 1.199219 9.199219 C 0.960938 9.199219 0.800781 9.359375 0.800781 9.601562 L 0.800781 21.199219 L 0.398438 21.199219 C 0.160156 21.199219 0 21.359375 0 21.601562 C 0 21.839844 0.160156 22 0.398438 22 L 23.601562 22 C 23.839844 22 24 21.839844 24 21.601562 C 24 21.359375 23.839844 21.199219 23.601562 21.199219 Z M 22 3.601562 L 22 4.398438 L 19.601562 4.398438 L 19.601562 3.601562 Z M 7.601562 3.601562 L 7.601562 4.398438 L 5.199219 4.398438 L 5.199219 3.601562 Z M 17.199219 8.398438 L 21.199219 8.398438 L 21.199219 9.199219 L 17.199219 9.199219 Z M 9.199219 8.160156 L 12 4.640625 L 14.800781 8.160156 L 14.800781 9.199219 L 9.199219 9.199219 Z M 2.800781 8.398438 L 6.800781 8.398438 L 6.800781 9.199219 L 2.800781 9.199219 Z M 1.601562 10 L 22.398438 10 L 22.398438 21.199219 L 13.601562 21.199219 L 13.601562 17.601562 C 13.601562 17.359375 13.441406 17.199219 13.199219 17.199219 L 10.800781 17.199219 C 10.558594 17.199219 10.398438 17.359375 10.398438 17.601562 L 10.398438 21.199219 L 1.601562 21.199219 Z M 11.199219 21.199219 L 11.199219 18 L 12.800781 18 L 12.800781 21.199219 Z M 11.199219 21.199219"/>
</svg>

<svg xmlns="http://www.w3.org/2000/svg" width="32" height="32" viewBox="0 0 24 24">
    <path d="M7.602 15.602h-.403v-4.403c0-.238-.16-.398-.398-.398H3.6c-.242 0-.402.16-.402.398v4.403h-.398c-.242 0-.403.16-.403.398 0 .238.16.398.403.398h4.8c.239 0 .399-.16.399-.398 0-.238-.16-.398-.398-.398zm-3.602-4h.8v4H4zm1.602 4v-4h.796v4zm0 0M10.398 16.398h4c.243 0 .403-.16.403-.398 0-.238-.16-.398-.403-.398H14v-4.403c0-.238-.16-.398-.398-.398h-3.204c-.238 0-.398.16-.398.398v4.403h-.398c-.243 0-.403.16-.403.398 0 .238.16.398.403.398zm2.801-.796h-.8v-4h.8zm-2.398-4h.8v4h-.8zm0 0M16.398 16.398H21.2c.242 0 .403-.16.403-.398 0-.238-.16-.398-.403-.398h-.398v-4.403c0-.238-.16-.398-.403-.398H17.2c-.238 0-.398.16-.398.398v4.403h-.403c-.238 0-.398.16-.398.398 0 .238.16.398.398.398zM20 15.602h-.8v-4h.8zm-2.398-4h.796v4h-.796zm0 0M6.8 17.2H3.603c-.243 0-.403.16-.403.402V20c0 .238.16.398.403.398H6.8c.238 0 .398-.16.398-.398v-2.398c0-.243-.16-.403-.398-.403zm-.402 2.402H4V18h2.398zm0 0M20.398 17.2H17.2c-.238 0-.398.16-.398.402V20c0 .238.16.398.398.398h3.2c.242 0 .402-.16.402-.398v-2.398c0-.243-.16-.403-.403-.403zM20 19.601h-2.398V18H20zm0 0"/>
    <path d="M23.602 21.2h-.403V9.601c0-.243-.16-.403-.398-.403H22V8c0-.238-.16-.398-.398-.398h-2V5.199h2.796c.243 0 .403-.16.403-.398V3.199c0-.238-.16-.398-.403-.398h-2.796v-.403c0-.238-.16-.398-.403-.398-.238 0-.398.16-.398.398v5.204h-2c-.242 0-.403.16-.403.398v1.2h-.796V8c0-.078-.043-.16-.082-.238l-3.122-3.903V3.2c0-.238-.16-.398-.398-.398-.238 0-.398.16-.398.398v.66L8.48 7.762c-.039.078-.082.16-.082.238v1.2h-.796V8c0-.238-.16-.398-.403-.398h-2V5.199H8c.238 0 .398-.16.398-.398V3.199c0-.238-.16-.398-.398-.398H5.2v-.403C5.2 2.16 5.04 2 4.8 2c-.241 0-.402.16-.402.398v5.204h-2C2.16 7.602 2 7.762 2 8v1.2h-.8c-.24 0-.4.16-.4.402v11.597H.399c-.238 0-.398.16-.398.403 0 .238.16.398.398.398h23.204c.238 0 .398-.16.398-.398 0-.243-.16-.403-.398-.403zM22 3.601v.796h-2.398v-.796zm-14.398 0v.796H5.199v-.796zm9.597 4.796h4V9.2h-4zm-8-.238L12 4.64l2.8 3.52V9.2H9.2zm-6.398.238h4V9.2h-4zM1.6 10h20.797v11.2h-8.796v-3.598c0-.243-.16-.403-.403-.403h-2.398c-.242 0-.403.16-.403.403v3.597H1.602zM11.2 21.2V18h1.602v3.2zm0 0"/>
</svg>
